X:1
T:The Banks of the Nile
M:3/4
L:1/4
K:A
 E| E AA/2-A/2| A c B| A/2A/2 A F| F- EE/2-C/2| D D D/2D/2| C E A|\
 F/2F/2 EC/2-A,/2| B,2 E/2D/2| C D E/2E/2| F G A/2A/2| B B,/2B,/2 C|\
 D- C A,/2A,/2| C/2C/2 D E| F A B| c/2c/2 dB/2-G/2| A2||
